X:1
T:Lo, How a Rose E’er Blooming
T:Lo, How a Rose E’er Blooming
T:15th Century German
T:Public Domain Courtesy of the Cyber Hymnal™
T:Public Domain Courtesy of the Cyber Hymnal™
C:15th Century German
Z:Public Domain
Z:Courtesy of the Cyber Hymnal™
%%score ( 1 2 ) ( 3 4 )
L:1/8
M:none
K:F
V:1 treble 
V:2 treble 
V:3 bass 
V:4 bass 
V:1
 [Fc]4 [Fc]2 [Fc]2 [Fd]2 [Fc]2 | [Ec]4 [DA]4 [DB]4 | (A2 G4) D2 F4 C4 E2 [CF]4 [Ac]4 | %3
w: 1.~Lo, how a Rose e’er|bloom- ing from|ten- * der stem hath sprung! Of Jes-|
w: 2.~I- sai- ah ’twas fore-|told it, the|Rose * I have in mind; With Ma-|
w: 3.~The shep- herds heard the|sto- ry pro-|claimed * by an- gels bright, How Christ,|
w: 4.~This Flower, whose fra- grance|ten- der with|sweet- * ness fills the air, Dis- pels|
w: 5.~O Sav- ior, Child of|Ma- ry, who|felt * our hu- man woe, O Sav-|
 [Ac]2 [Fc]2 [Fd]2 [Fc]2 | [Ec]4 [DA]4 [DB]4 | (A2 G4 F4) E2 [CF]6 [FA]2 | %6
w: se’s lin- eage com-|ing, as men|of * * old have sung.|
w: ry we be- hold|it, the vir-|gin * * mo- ther kind.|
w: the Lord of glo-|ry was born|on * * earth this night.|
w: with glor- ious splen-|dor the dark-|ness * * ev- ery- where;|
w: ior, King of glo-|ry, who dost|our * * weak- ness know;|
 [DG]2 [CE]2 [CF]2 [=B,D]2 | C6 [Ec]2 | [Gc]2 [Fc]2 [Fd]2 [Fc]2 | [Ec]4 [DA]4 [DB]4 | %10
w: It came, a flower-|et bright,|a- mid the cold|of win- ter,|
w: To show God’s love|a- right,|she bore to men|a Sav- ior,|
w: To Beth- le- hem|they sped|and in the man-|ger found Him,|
w: True Man, yet ve-|ry God,|from sin and death|He saves us,|
w: Bring us at length|we pray,|to the bright courts|of Heav- en,|
 [FA]2 G2 [CF]4 [CE]2 | [CF]8 |] %12
w: When half spent was|the|
w: When half spent was|the|
w: As an- gel her-|alds|
w: And light- ens ev-|ery|
w: And to the end-|less|
V:2
 x12 | x12 | C4 x2 (A,2 E2) x16 | x8 | x12 | C4 D2 x2 A,2 C4 x6 | x8 | C6 x2 | x8 | x12 | %10
 x2 D2 x6 | x8 |] %12
V:3
 [F,A,]4 [F,A,]2 [F,A,]2 B,2 [F,A,]2 | [C,G,]4 [D,F,]4 [B,,F,]4 | %2
 ([F,A,]2 [E,C]2 B,2) C,4 G,2 [F,A,]4 [F,C]4 x6 | [F,C]2 [F,A,]2 B,2 [F,A,]2 | %4
 [C,G,]4 [D,F,]4 [B,,F,]4 | ([F,A,]2 [E,C]2 B,2) A,4 G,2 [F,A,]6 [A,C]2 | [G,B,]2 A,2 [F,A,]2 G,2 | %7
 ([C,E,][D,F,] [E,G,]4) [C,G,]2 | [E,G,]2 [F,A,]2 [B,,B,]2 [F,A,]2 | [C,G,]4 [D,^F,]4 [G,,G,]4 | %10
 [A,,C]2 [B,,B,]2 [C,A,]4 [C,G,]2 | [F,A,]8 |] %12
V:4
 x8 B,2 x2 | x12 | x4 D,4 A,4 x4 G,2 x8 | x8 | x12 | x4 D,4 C,4 x8 | x8 | x8 | x8 | x12 | x10 | %11
 x8 |] %12

